X: 11124
T: Duke Of Leinster, The
R: reel
M: 4/4
K: Gmajor
D|:G2BG DGBc|dBeB dBAB|G2BG DGBc|dBAB GEDE|
G2BG DGBc|dBeB dBAB|GB~B2 dB~B2|1 dBAB GEDE:|2 dBAB GEDB||
|:dega bg~g2|a2ag ageg|dega bage|dBAB GEDB|
dega bg~g2|a2ag agef|g2fg efge|1 dBAB GEDB:|2 dBAB GEDE||

